X: 113
T: Ballyoran Polka 2
N: page 38
N: heptatonic
R: polka
M: 2/4
L: 1/16
K: G
Q:1/4=60
|:BA|"G"G2DG B2GB|d2Bd g2B2|"D"d2c2 c2A2|"G"e2d2 BcBA|\
"G"G2DG B2Gd|"G"d2Bd g2B2|"D" d2c2c2F2|"G"A2G2 G2::
B2|"D" d2c2 c2A2|"G"e2d2 B2GB|"D"d2c2 c2A2|"G"e2d2 "D" BcBA|\
"G" G2DG B2GB|d2Bd g2B2|"D"d2c2 c2F2|"G" A2G2 G2:|
